X:3
T:Vals  (from Jarna) e. Bertil Ferneborg
R:vals
C:Trad., via Bertil Ferneborg
M:3/4
L:1/8
K:A
P:Melody
e2
| "A"ea ae Ac | "A"e2 ef e2 | "A"ea ae Ac | "A"e4 e2
| "A"ea ae Ac | "A"e2 {f}e2 {f}e2 | "A"ea ae Ac | "A"e4 =g2
K:G
| "D"gf d2 d2 | "D"f3 f ec | "Am"A2 AB cd | "Am"ef ec AG
| "D"{G}A2 A2 AB | "Am"{B}cd cB AG | "G"~B2 A2 "Am"A2 | "Am"A4 g2
| "D"gf d2 d2 | "D"f3 (g/f/e/d/c/B/) | "Am"A2 AB cd | "Am"ef ec AG
| "D"{G}A2 A2 AB | "Am"{B}cd cB AG | "G"~B2 A2 "Am"A2 | "Am"A4  ^c2 ||
P:Harmony
K:A
c2 | ce eA EA | c2 cd c2 |  ce eA EA | c4 c2 |
ce eA EA | c2 ~c2 ~c2 |  ce eA EA | c4 e2 |
K:G
| ed A2 A2 |  d3 d cA | E2 EG AB | cd cA ED |
({D}E2 ~E)D EG | AB AG ED | {D}G2 (E2 ~E2) | [E4C4] e2 |
ed A2 A2 |  d3 (d/c/A/G/E/D/) | E2 EG AB | cd cA ED |
({D}E2 ~E)D EG | AB AG ED | {D}G2 (E2 ~E2) | [E4C4] ||
